assets/icons/ic_solana.svg

<svg fill="none" height="16" viewBox="0 0 18 16" width="18" xmlns="http://www.w3.org/2000/svg"><g fill="#e84142"><path d="m9.87325.884862c-.87413-1.60257-1.57829-.667738-1.8211 0-2.36743 4.249238-7.247985 12.966238-7.830738 13.840338-.582753.8742.121407 1.2141.546331 1.2748h4.734867c.87413 0 1.45688-.607 1.63899-.9106 1.27477-2.1853 3.97-6.84729 4.5528-8.0128.5827-1.16551.3642-2.18532.1821-2.54954z"/><path d="m15.5187 10.7187c-1.1655-2.18528-1.875-.82064-2.3675 0-.5463.9106-1.7846 2.9866-2.3674 4.0065-.5827 1.0198.2428 1.2747.7284 1.2747h5.6455c1.0198 0 .7891-.8498.5463-1.2747z"/></g></svg>

<svg width="18" height="16" viewBox="0 0 18 16" fill="none" xmlns="http://www.w3.org/2000/svg">
<path d="M9.87325 0.884862C8.99912 -0.717708 8.29496 0.217124 8.05215 0.884862C5.68472 5.1341 0.804165 13.8511 0.221412 14.7252C-0.361341 15.5994 0.342819 15.9393 0.767743 16H5.50261C6.37674 16 6.95949 15.393 7.1416 15.0894C8.41637 12.9041 11.1116 8.24211 11.6944 7.0766C12.2771 5.91109 12.0586 4.89128 11.8765 4.52706L9.87325 0.884862Z" fill="#E84142"/>
<path d="M15.5187 10.7187C14.3532 8.53342 13.6437 9.89806 13.1512 10.7187C12.6049 11.6293 11.3666 13.7053 10.7838 14.7252C10.2011 15.745 11.0266 15.9999 11.5122 15.9999H17.1577C18.1775 15.9999 17.9468 15.1501 17.704 14.7252L15.5187 10.7187Z" fill="#E84142"/>
</svg>
